packages/ffe-icons/icons/filled/md/forest.svg

<svg xmlns="http://www.w3.org/2000/svg" height="24" viewBox="0 -960 960 960" width="24"><path d="M540.001-136.155v-88.462h119.998v90.001q0 14.711-9.952 24.663t-24.663 9.952h-49.229q-15.365 0-25.759-10.395-10.395-10.394-10.395-25.759Zm-240 0v-123.846H104.156q-21.792 0-31.78-19.077-9.989-19.077 1.857-37.154l119.77-183.769h-7.693q-21.077 0-31.615-18.77-10.539-18.769 2.308-36.845l173.074-247.382q5.616-7.615 13.75-11.538 8.135-3.923 16.269-3.923 8.135 0 16.173 3.923 8.038 3.923 13.654 11.538l173.074 247.382q12.847 18.076 2.308 36.845-10.538 18.77-31.615 18.77h-7.693l120.385 183.769q11.846 18.077 1.858 37.154t-31.781 19.077h-196.46v125.385q0 14.711-9.952 24.663t-24.663 9.952h-49.229q-15.365 0-25.759-10.395-10.395-10.394-10.395-25.759Zm425.765-123.846L591.535-464.617h8.462q21.84 0 32.304-19.385 10.465-19.384-2.381-37.461L501.923-704.151l68.154-98.847q5.616-7.615 13.75-11.538 8.135-3.923 16.269-3.923 8.135 0 16.173 3.923 8.038 3.923 13.654 11.538l173.074 247.382q12.847 18.076 2.308 36.845-10.538 18.77-31.615 18.77h-7.693l119.77 183.769q11.846 18.077 1.858 37.154-9.989 19.077-31.781 19.077H725.766Z"/></svg>

<svg xmlns="http://www.w3.org/2000/svg" height="24" viewBox="0 -960 960 960" width="24"><path d="M540-136.16v-88.46h120v90q0 14.71-9.95 24.67-9.96 9.95-24.67 9.95h-49.22q-15.37 0-25.76-10.4-10.4-10.39-10.4-25.76Zm-240 0V-260H104.16q-21.8 0-31.78-19.08-9.99-19.08 1.85-37.15L194-500h-7.69q-21.08 0-31.62-18.77-10.53-18.77 2.31-36.85L330.08-803q5.61-7.61 13.75-11.54 8.13-3.92 16.27-3.92 8.13 0 16.17 3.92 8.04 3.93 13.65 11.54L563-555.62q12.84 18.08 2.31 36.85Q554.77-500 533.69-500H526l120.38 183.77q11.85 18.07 1.86 37.15T616.46-260H420v125.38q0 14.71-9.95 24.67-9.96 9.95-24.67 9.95h-49.22q-15.37 0-25.76-10.4-10.4-10.39-10.4-25.76ZM725.77-260 591.53-464.62H600q21.84 0 32.3-19.38 10.47-19.39-2.38-37.46l-128-182.69L570.08-803q5.61-7.61 13.75-11.54 8.13-3.92 16.27-3.92 8.13 0 16.17 3.92 8.04 3.93 13.65 11.54L803-555.62q12.84 18.08 2.31 36.85Q794.77-500 773.69-500H766l119.77 183.77q11.84 18.07 1.85 37.15Q877.64-260 855.84-260H725.77Z"/></svg>
